X: 4303
T: JOLLY TARS
%R: hornpipe, reel
B: James Kerr "Merry Melodies" v.4 p.32 #303
Z: 2016 John Chambers <jc:trillian.mit.edu>
N: Missing final repeat symbol added.
M: C|
L: 1/8
K: F
(cB) |\
AFAc dBdf | eceg f2(fe) |\
[1 dfed cAfe | dcBA G2 :|\
[2 dbag fede | g2f2 f2 |:\
(gf) |\
eceg b2(ag) |
fcfa c'2(ba) |\
g^fga bag=f | e2c2 c2(cB) |\
AFAc dBdf | eceg f2(fe) |\
dbag fede | g2f2 f2 :|

%%sep 1 1 500
%%sep 1 1 500

